src/icons/mail.svg

<svg width="16" height="16" viewBox="0 0 16 16" fill="none" xmlns="http://www.w3.org/2000/svg">
<path fill-rule="evenodd" clip-rule="evenodd" d="M1 3.5L1.5 3H14.5L15 3.5V3.76904V12.5L14.5 13H1.5L1 12.5V3.76904V3.5ZM2 4.53491V12H14V4.53601L8.31 8.90002H7.70001L2 4.53491ZM13.03 4H2.97L8 7.86902L13.03 4Z" fill="white"/>
</svg>

<svg width="16" height="16" xmlns="http://www.w3.org/2000/svg"><path fill-rule="evenodd" clip-rule="evenodd" d="M1 3.5l.5-.5h13l.5.5v9l-.5.5h-13l-.5-.5v-9zm1 1.035V12h12V4.536L8.31 8.9H7.7L2 4.535zM13.03 4H2.97L8 7.869 13.03 4z"/></svg>
